X:257
T:Reel 257
L:1/8
M: 4/4
K: D Major
fe|d2AdfdAF|GA(3AAAefed|c2(3efgafge|fedfeAAf|d2AdfdAG|FAdefece|f2egfdAF|GAced2:||:AG|FAdAfAdA|GAeAGAcA|EAcAeAcA|edcBAGFG|AGAfdAfA|GAeAcAeA|FAdAGBec|Acecd2:|.abc